X: 138
T: REEL: Lad O'Beirne's
C: C: Lad O'Beirne (?); S: Tulla Céilí Band
C: Set Leaders: Anton, Sophie
Z: Anton Zille ed.; Josh Kane at The Session
N: https://thesession.org/members/26966/sets/74251
R: Reel
M: 4/4
L: 1/8
Q: 1/2=100
K: Gmaj
|:DG~G2 G2 BG|AcBG AGEG|DGGF GABd|egdg edge|
dB~B2 dBGB|cE~E2 GEDB,|DEGA ~B3c|1 dBAc BGGE:|2 dBAc BGGA||
|:BddB d2 Bd|egdg edge|dB~B2 dBGB|cE~E2 GEDA|
Bd~d2 d2 ef|g2 fa gedB|DEGA ~B3c|1 dBAc BGGA:|2 dBAc BGGE||

